text-box-plus.svg

<svg fill="currentColor" viewBox="0 0 24 24"><path d="M17 14h2v3h3v2h-3v3h-2v-3h-3v-2h3zm-5 3v-2H7v2zm5-6H7v2h7.69A5.98 5.98 0 0 0 12 18c0 1.09.29 2.12.8 3H5a2 2 0 0 1-2-2V5c0-1.11.89-2 2-2h14a2 2 0 0 1 2 2v7.8c-.88-.51-1.91-.8-3-.8l-1 .08zm0-2V7H7v2z"/></svg>

<svg  viewBox="0 0 24 24" fill="currentColor"><path  d="M17,14H19V17H22V19H19V22H17V19H14V17H17V14M12,17V15H7V17H12M17,11H7V13H14.69C13.07,14.07 12,15.91 12,18C12,19.09 12.29,20.12 12.8,21H5C3.89,21 3,20.1 3,19V5C3,3.89 3.89,3 5,3H19A2,2 0 0,1 21,5V12.8C20.12,12.29 19.09,12 18,12L17,12.08V11M17,9V7H7V9H17Z"/></svg>
